findly-builder/apps/searchassist/src/assets/icons/clone.svg

<svg width="13" height="13" viewBox="0 0 13 13" fill="none" xmlns="http://www.w3.org/2000/svg">
<path fill-rule="evenodd" clip-rule="evenodd" d="M12.0968 5.75V10.3468C12.0968 11.3133 11.3133 12.0968 10.3468 12.0968H5.75C4.7835 12.0968 4 11.3133 4 10.3468V5.75C4 4.7835 4.7835 4 5.75 4H10.3468C11.3133 4 12.0968 4.7835 12.0968 5.75ZM11.0968 5.75V10.3468C11.0968 10.761 10.761 11.0968 10.3468 11.0968H5.75C5.33579 11.0968 5 10.761 5 10.3468V5.75C5 5.33579 5.33579 5 5.75 5H10.3468C10.761 5 11.0968 5.33579 11.0968 5.75Z" fill="#202124"/>
<path d="M1.75 8.09677C0.783503 8.09677 0 7.31327 0 6.34677V1.75C0 0.783503 0.783501 0 1.75 0H6.34677C7.31327 0 8.09677 0.783501 8.09677 1.75V2.5C8.09677 2.77614 7.87292 3 7.59677 3C7.32063 3 7.09677 2.77614 7.09677 2.5V1.75C7.09677 1.33579 6.76099 1 6.34677 1H1.75C1.33579 1 1 1.33579 1 1.75V6.34677C1 6.76099 1.33579 7.09677 1.75 7.09677H2.5C2.77614 7.09677 3 7.32063 3 7.59677C3 7.87292 2.77614 8.09677 2.5 8.09677H1.75Z" fill="#202124"/>
</svg>

<svg width="13" height="13" fill="none" xmlns="http://www.w3.org/2000/svg"><path fill-rule="evenodd" clip-rule="evenodd" d="M12.097 5.75v4.597a1.75 1.75 0 0 1-1.75 1.75H5.75A1.75 1.75 0 0 1 4 10.347V5.75C4 4.784 4.784 4 5.75 4h4.597c.966 0 1.75.784 1.75 1.75Zm-1 0v4.597a.75.75 0 0 1-.75.75H5.75a.75.75 0 0 1-.75-.75V5.75A.75.75 0 0 1 5.75 5h4.597a.75.75 0 0 1 .75.75Z" fill="#202124"/><path d="M1.75 8.097A1.75 1.75 0 0 1 0 6.347V1.75C0 .784.784 0 1.75 0h4.597c.966 0 1.75.784 1.75 1.75v.75a.5.5 0 1 1-1 0v-.75a.75.75 0 0 0-.75-.75H1.75a.75.75 0 0 0-.75.75v4.597c0 .414.336.75.75.75h.75a.5.5 0 0 1 0 1h-.75Z" fill="#202124"/></svg>
